X:17826
T:Tripping Up the Stairs
M:6/8
L:1/8
K:D Major
A|FAA GBB|Ade fed|cdc ABc|dfe dAG|!
FAA GBB|Ade fed|cdc ABc|dfe c2:|!
c|dBB fBB|fgf fed|cAA eAA|aga edc|!
dBB fBB|fgf fed|cdc ABc|dfe c2:|!
